!!!OTL: AUF ES DUNKELT SILBERN FUNKELT
!!!ARE: Europa, Mitteleuropa, Deutschland
!!!SCT: F0959
!!!YEM: Copyright 1995, estate of Helmut Schaffrath.
**kern
*ICvox
*Ivox
*M3/8
*k[f#c#g#d#]
*E:
=1
{4B
8A
=2
8G#
8E
8E
=3
8.B
16c#
16B
16A
=4
8G#
8E
16G#
16B}
=5
{4e
8d#
=6
8.e
16f#
16d#
16f#
=7
8.e
16B
16G#
16B
=8
4.F#}
=9
{8.B
16c#
16d#
16e
=10
4f#
16d#
16f#
=11
8.e
16f#
16c#
16e
=12
4d#
8B}
=13
{4g#
8f#
=14
8.e
16B
16c#
16d#
=15
16e
16f#
8g#
8f#
=16
4.e}
==
!!!AGN: Liebes - Lied; Rund - Tanz
!!!ONB: ESAC (Essen Associative Code) Database: FINK
!!!AMT: simple triple
!!!AIN: vox
!!!EED: Helmut Schaffrath
!!!EEV: 1.0
*-
